client/public/assets/waves3.svg

<svg width="900" height="600" xmlns="http://www.w3.org/2000/svg"><path d="m582 600 17-14.3c17-14.4 51-43 60.7-71.5 9.6-28.5-5-56.9-23.7-85.4-18.7-28.5-41.3-57.1-24.2-85.8 17.2-28.7 74.2-57.3 96.5-86 22.4-28.7 10-57.3-12.8-85.8s-56.2-56.9-63.8-85.4C624 57.3 642 28.7 651 14.3L660 0h240v600Z" fill="#573589"/></svg>

<svg id="visual" viewBox="0 0 900 600" width="900" height="600" xmlns="http://www.w3.org/2000/svg" xmlns:xlink="http://www.w3.org/1999/xlink" version="1.1"><path d="M582 600L599 585.7C616 571.3 650 542.7 659.7 514.2C669.3 485.7 654.7 457.3 636 428.8C617.3 400.3 594.7 371.7 611.8 343C629 314.3 686 285.7 708.3 257C730.7 228.3 718.3 199.7 695.5 171.2C672.7 142.7 639.3 114.3 631.7 85.8C624 57.3 642 28.7 651 14.3L660 0L900 0L900 14.3C900 28.7 900 57.3 900 85.8C900 114.3 900 142.7 900 171.2C900 199.7 900 228.3 900 257C900 285.7 900 314.3 900 343C900 371.7 900 400.3 900 428.8C900 457.3 900 485.7 900 514.2C900 542.7 900 571.3 900 585.7L900 600Z" fill="#573589" stroke-linecap="round" stroke-linejoin="miter"></path></svg>
